!!!COM: Scriabin, Alexander
!!!OTL@@FR: Mouvement no 4
!!!OTL@@EN: Movement No. 4
!!!OPR@@FR: Sonate no 3
!!!OPR@@EN: Sonata No. 3
!!!OPS: 23
!!!ONM: 4
!!!ODT: 1897
!!!AGN: Sonata movement
**kern	**kern	**dynam
*staff2	*staff1	*staff1/2
*Ipiano	*Ipiano	*
*clefF4	*clefG2	*
*k[f#c#g#]	*k[f#c#g#]	*
*f#:	*f#:	*
*M3/4	*M3/4	*
=1	=1	=1
*	*^	*
12AL	4rc	8raa	.
12C#	.	.	.
.	.	8c#	.
12FF#J	.	.	.
12C#L	4A	8.f#L	.
12CC#	.	.	.
12FFF#J	.	.	.
.	.	16e#XJk	.
16CC#LL	4A 4c#	4e#	.
16C#	.	.	.
16FF#	.	.	.
16C#JJ	.	.	.
=2	=2	=2	=2
*	*	*^	*
12G#L	4B\	2.B	4en	.
12C#	.	.	.	.
12FF#J	.	.	.	.
12C#L	4E\	.	4d#X	.
12CC#	.	.	.	.
12FFF#J	.	.	.	.
16CC#LL	4E#X\	.	8dnL	.
16C#	.	.	.	.
16FF#	.	.	8c#J	.
16C#JJ	.	.	.	.
*	*	*v	*v	*
=3	=3	=3	=3
12AL	4rc	8raa	.
12C#	.	.	.
.	.	8c#	.
12FF#J	.	.	.
12C#L	4A	8.f#L	.
12CC#	.	.	.
12FFF#J	.	.	.
.	.	16e#XJk	.
16CC#LL	4A 4c#	4e#	.
16C#	.	.	.
16FF#	.	.	.
16C#JJ	.	.	.
=4	=4	=4	=4
*	*	*^	*
12G#L	4B\	2.B	4en	.
12C#	.	.	.	.
12FF#J	.	.	.	.
12C#L	4E\	.	4d#X	.
12CC#	.	.	.	.
12FFF#J	.	.	.	.
16CC#LL	4E#X\	.	8dnL	.
16C#	.	.	.	.
16FF#	.	.	8c#J	.
16C#JJ	.	.	.	.
*	*	*v	*v	*
*	*v	*v	*
=5	=5	=5
12AL	6r	.
12C#	.	.
12FF#J	12A	.
12C#L	8.c#L 8.f#	.
12CC#	.	.
12FFF#J	.	.
.	16c#Jk 16e#X	.
16CC#LL	8f#L 8a	.
16C#	.	.
16FF#	8AJ	.
16C#JJ	.	.
=6	=6	=6
12AL	6r	.
12E	.	.
12FF#J	12A	.
12C#L	8.enL 8.a	.
12CC#	.	.
12FFF#J	.	.
.	16eJk 16g#	.
16CC#LL	8f#L 8a 8cc#	.
16C#	.	.
16FF#	8AJ	.
16EJJ	.	.
=7	=7	=7
12AL	6r	.
12D#X	.	.
12FF#J	12A	.
12BBL	8.d#XL 8.a	.
12BBB	.	.
12FFF#J	.	.
.	16d#Jk 16g#	.
16BBBLL	8aL 8ff#	.
16BB	.	.
16FF#	8AJ	.
16D#JJ	.	.
=8	=8	=8
12AL	6r	.
12Dn	.	.
12FF#J	12A	.
12BB#XL	8.dnL 8.f#	.
12BBB#X	.	.
12FFF#J	.	.
.	16dJk 16e#X	.
16BBB#LL	8f#L 8a	.
16BB#	.	.
16FF#	8AJ	.
16DJJ	.	.
=9	=9	=9
*^	*^	*
4F#	12F#L	6rc	4raa	.
.	12C#	.	.	.
.	12FF#J	12A 12c#	.	.
4rEE	12C#L	8.f#L	2f# 2a	.
.	12CC#	.	.	.
.	12FFF#J	.	.	.
.	.	16e#XJk	.	.
4rEE	16CC#LL	4e#	.	.
.	16C#	.	.	.
.	16FF#	.	.	.
.	16C#JJ	.	.	.
=10	=10	=10	=10	=10
4A	12AL	4en	2a 2cc#	.
.	12C#	.	.	.
.	12FF#J	.	.	.
4rEE	12C#L	4d#X	.	.
.	12CC#	.	.	.
.	12FFF#J	.	.	.
4rEE	16CC#LL	8dnL	4f# 4a	.
.	16BB#X	.	.	.
.	16C#	8c#J	.	.
.	16F#JJ	.	.	.
=11	=11	=11	=11	=11
4G	12GnL	6rc	4raa	.
.	12D	.	.	.
.	12FF#J	12B 12d	.	.
4rEE	12DL	8.gL	2gn 2b	.
.	12DD	.	.	.
.	12FFF#J	.	.	.
.	.	16f#Jk	.	.
4rEE	16DDLL	4f#	.	.
.	16D	.	.	.
.	16FF#	.	.	.
.	16DJJ	.	.	.
=12	=12	=12	=12	=12
4B	12BL	4fn	2b 2dd	.
.	12D	.	.	.
.	12FF#XJ	.	.	.
4rEE	12DL	4e	.	.
.	12DD	.	.	.
.	12FFF#J	.	.	.
4rEE	16FF#LL	8e-XL	4gn 4b	.
.	16C#	.	.	.
.	16D	8dJ	.	.
.	16GnJJ	.	.	.
*	*	*v	*v	*
=13	=13	=13	=13
4A	12AL	6r	.
.	12D	.	.
.	12FF#J	12B	.
4rEE	12DL	8.e#XL 8.b	.
.	12DD	.	.
.	12FFF#J	.	.
.	.	16e#Jk 16a#X	.
4rEE	16DDLL	8e#L 8b 8dd	.
.	16D	.	.
.	16FF#	8BJ	.
.	16DJJ	.	.
=14	=14	=14	=14
4G#	12G#L	6r	.
.	12D	.	.
.	12FF#J	12E#X	.
4rEE	12DL	8.BL 8.d	.
.	12DD	.	.
.	12FFF#J	.	.
.	.	16BJk 16c#	.
4rEE	16DDLL	8BL 8d 8e#X	.
.	16D	.	.
.	16FF#	8E#J	.
.	16DJJ	.	.
=15	=15	=15	=15
4A	12AL	6r	.
.	12D	.	.
.	12FF#J	12F#	.
4rEE	12DL	8.BL 8.f#	.
.	12DD	.	.
.	12FFF#J	.	.
.	.	16BJk 16f#	.
4rEE	16DDLL	8BL 8f#	.
.	16D	.	.
.	16FF#	8F#J	.
.	16DJJ	.	.
*v	*v	*	*
=16	=16	=16
12AL	6r	.
12C#	.	.
12FF#J	12F#	.
12C#L	8.AL 8.c# 8.f#	.
12CC#	.	.
12FFF#J	.	.
.	16AJk 16c# 16f#	.
12CC#L	6A 6c# 6f#	.
12FF#	.	.
12CC#J 12C#	12r	.
=17	=17	=17
*	*^	*
6FFF# 6FF#	4rc	4raa	.
12C# 12c#	.	.	.
8.F#L 8.f#	4rc	4a	.
16E#XJk 16e#X	.	.	.
4E# 4e#	4a	4b	.
=18	=18	=18	=18
*^	*	*	*
4En 4en	2.A	2f#	4B#X 4b#X	.
4D#X 4d#X	.	.	4c# 4cc#	.
8DnL 8dn	.	4ff#	4a 4aa	.
8C#J 8c#	.	.	.	.
*v	*v	*	*	*
=19	=19	=19	=19
2.A 2.c# 2.a	2.cc#	4g# 4gg#	.
.	.	4gn 4ggn	.
.	.	4f# 4ff#	.
=20	=20	=20	=20
*^	*	*	*
2BB#X	2.A	2.f#	4e 4ee	.
.	.	.	4d#X 4dd#X	.
8BB#L	.	.	8dnL 8ddn	.
8C#J	.	.	8c#J 8cc#	.
*v	*v	*	*	*
*	*v	*v	*
=21	=21	=21
4GGG# 4GG#	8r	.
.	8F#	.
4AAA 4AA	8.c#L 8.f#	.
.	16c#Jk 16f# 16g#	.
4BBBn 4BBn	8dL 8f# 8a	.
.	8F#J	.
=22	=22	=22
4BBB#X 4BB#X	8r	.
.	8A	.
4CC# 4C#	8.f#L 8.a	.
.	16f#Jk 16bn	.
4AA 4A	8f#L 8cc#	.
.	8c#J	.
=23	=23	=23
4GG# 4G#	8r	.
.	8c#	.
4GGn 4Gn	8.e#XL 8.a 8.cc#	.
.	16aJk 16cc# 16ee#X	.
4FF# 4F#	8aL 8cc# 8ff#	.
.	8c#J	.
=24	=24	=24
4EE 4E	8r	.
.	[8f#	.
4DD 4D	8.f#L] 8.a 8.ff#	.
.	16g#XJk 16ff# 16gg#X	.
12BBB#XL 12BB#X	4a 4ff# 4aa	.
12CC# 12C#	.	.
24DDJk 24D	.	.
24r	.	.
=25	=25	=25
*	*^	*
12aL	4rc	6raa	.
12c#	.	.	.
12D#XJ	.	12cc#	.
12AL	4cc#	8.f#L 8.ff#	.
12C#	.	.	.
12DD#XJ	.	.	.
.	.	16e#XJk 16ee#X	.
16C#LL	4cc#	4e# 4ee#	.
16A	.	.	.
16D#	.	.	.
16c#JJ	.	.	.
=26	=26	=26	=26
12g#L	2b#X	4en 4een	.
12B#X	.	.	.
12EJ	.	.	.
12G#L	.	4d#X 4dd#X	.
12BB#X	.	.	.
12EEJ	.	.	.
16EE#XLL	4bn	8dnL 8ddn	.
16BBn	.	.	.
16G#	.	8c#J 8cc#	.
16g#JJ	.	.	.
=27	=27	=27	=27
12aL	4rc	6raa	.
12cn	.	.	.
12F#J	.	12ee	.
12cL	8.aL 8.aa	4ee	.
12E	.	.	.
12FF#J	.	.	.
.	16g#Jk 16gg#	.	.
16ELL	4g# 4gg#	4ee	.
16c	.	.	.
16F#	.	.	.
16eJJ	.	.	.
=28	=28	=28	=28
12bL	4gn 4ggn	2dd#X	.
12d#X	.	.	.
12GnJ	.	.	.
12BL	4f# 4ff#	.	.
12D#X	.	.	.
12GGnJ	.	.	.
16GG#XLL	8fnL 8ffn	4ddn	.
16Dn	.	.	.
16B	8eJ 8ee	.	.
16bJJ	.	.	.
=29	=29	=29	=29
12ccnL	4rc	6raa	.
12e-X	.	.	.
12AJ	.	12ggn	.
12e-L	8.ccnL 8.cccn	4gg	.
12Gn	.	.	.
12AAJ	.	.	.
.	16bJk 16bb	.	.
16BBLL	4b 4bb	4gg	.
16G	.	.	.
16d#X	.	.	.
16gnJJ	.	.	.
*clefG2	*	*	*
=30	=30	=30	=30
12dd#XL	8a#XL 8aa#X	8ff#	.
12f#	.	.	.
.	8aa#J	8raa	.
12B#XJ	.	.	.
*clefF4	*	*	*
12f#L	8.dd#XL 8.ddd#X	4aa#	.
12A#X	.	.	.
12BB#XJ	.	.	.
.	16cc##XJk 16ccc##X	.	.
16C##XLL	4cc## 4ccc##	4aa#	.
16A#	.	.	.
16f#	.	.	.
16a#XJJ	.	.	.
*clefG2	*	*	*
=31	=31	=31	=31
12ff#L	8cc#X 8ccc#X	8aan	.
12an	.	.	.
.	8ff# 8aa	8raa	.
12d#XJ	.	.	.
*clefF4	*	*	*
12aL	8.ccc#L 8.fff#	4raa	.
12c#	.	.	.
12D#XJ	.	.	.
.	16ccc#Jk 16fff#	.	.
16c#LL	8ccc#L 8fff#	4raa	.
16a	.	.	.
16d#X	8ff#J 8aa	.	.
16cc#JJ	.	.	.
*	*v	*v	*
*clefG2	*	*
=32	=32	=32
12aaL	8r	.
12cc#	.	.
.	8ffn 8aa	.
12d#XJ	.	.
*clefF4	*	*
12aL	8.ccc#L 8.fffn	.
12c#	.	.
12D#XJ	.	.
.	16ccc#Jk 16fff	.
16c#LL	8ccc#L 8fff	.
16a	.	.
16d#X	8ffJ 8aa	.
16cc#JJ	.	.
*clefG2	*	*
=33	=33	=33
12aaL	8r	.
12cc#	.	.
.	8ee 8aa	.
12eJ	.	.
*clefF4	*	*
12aL	8.ccc#L 8.eee	.
12c#	.	.
12EJ	.	.
.	16ccc#Jk 16eee	.
*clefG2	*	*
16c#LL	8ccc#L 8eee	.
16a	.	.
16e	8eeJ 8aa	.
16cc#JJ	.	.
*clefF4	*	*
=34	=34	=34
12aL	8r	.
12c#	.	.
.	8e 8a	.
12EJ	.	.
12AL	8.cc#L 8.ee	.
12C#	.	.
12EEJ	.	.
.	16cc#Jk 16ee	.
16C#LL	8cc#L 8ee	.
16A	.	.
16E	8eJ 8a	.
16c#JJ	.	.
=35	=35	=35
12aL	8r	.
12B	.	.
.	8d 8a	.
12EJ	.	.
12AL	8.bL 8.ee	.
12BB	.	.
12EEJ	.	.
.	16bJk 16ee	.
16BBLL	8bL 8ee	.
16A	.	.
16E	8dJ 8a	.
16BJJ	.	.
=36	=36	=36
12g#L	8r	.
12B	.	.
.	8d 8g#	.
12EJ	.	.
12G#L	8bL 8ee	.
12BB	.	.
.	8dd#XJ	.
12EEJ	.	.
4r	8eeL	.
.	8ee#XJ	.
=37	=37	=37
*^	*^	*
[2dn	2.en	2g#	8.ff#L	.
.	.	.	16bJk	.
.	.	.	4.b	.
8dL]	.	4rc	.	.
8c#J	.	.	8cc#	.
=38	=38	=38	=38	=38
4B	2f#	2a	8eeL	.
.	.	.	8ddJ	.
4d	.	.	8bL	.
.	.	.	8f#J	.
4E	4rc	8eL 8g#	8g#L	.
.	.	8dJ 8f#	8cc#J	.
*v	*v	*	*	*
=39	=39	=39	=39
8AAAL	8dL 8f#	8bL	.
[8AAJ	8c#J 8e	8aJ	.
2AA] 2E	8c#L	4..e	.
.	8B	.	.
.	8d	.	.
.	8c#J	.	.
.	.	16e	.
=40	=40	=40	=40
*	*^	*^	*
8FF#L	4A\	2c#\	2e	4raa	.
8C#	.	.	.	.	.
8F#	4r	.	.	4raa	.
8G#	.	.	.	.	.
8B	4r	4r	4rc	8raa	.
8AJ	.	.	.	8b#X	.
*	*	*	*v	*v	*
*	*	*v	*v	*
=41	=41	=41	=41
*^	*	*	*
[2A	2.Bn	4.e	8.cc#L	.
.	.	.	16f#Jk	.
.	.	.	4.f#	.
.	.	4.d#X	.	.
8AL]	.	.	.	.
8G#J	.	.	8g#	.
=42	=42	=42	=42	=42
4F#	2c#	2e	8bL	.
.	.	.	8aJ	.
4A	.	.	8f#L	.
.	.	.	8c#J	.
4BB	4rc	8BL 8d#	8d#XL	.
.	.	8AJ 8c#	8g#J	.
*v	*v	*	*	*
=43	=43	=43	=43
8EEEL	8AL 8c#	8f#L	.
[8EEJ	8G#J 8B	8eJ	.
2EE] 2BB	8G#L	4..B	.
.	8F#	.	.
.	8A	.	.
.	8G#J	.	.
.	.	16B	.
*	*v	*v	*
=44	=44	=44
8DD#XL	4.G# 4.B	.
8GG#J	.	.
8E	.	.
8r	8B	.
4r	8eL	.
.	8g#J	.
=45	=45	=45
.	16qB/LL	.
.	16qe/	.
.	16qg#/JJ	.
*^	*^	*
2.CC#	4rc	4rc	8.eeL	.
.	.	.	16g#Jk	.
.	2E	[2B	4.g#	.
.	.	.	8a	.
*v	*v	*	*	*
=46	=46	=46	=46
12r	4B]	8g#L	.
12FF#L	.	.	.
.	.	8f#J	.
12C#J	.	.	.
12EL	4A	8B#XL	.
12D#X	.	.	.
.	.	8c#J	.
12C#J	.	.	.
12AL	4c#	8e#XL	.
12C#	.	.	.
.	.	8f#J	.
12FF#J	.	.	.
=47	=47	=47	=47
.	.	16qA/LL	.
.	.	16qdn/	.
.	.	16qf#/JJ	.
*^	*	*	*
2BBB	4rc	4rc	8.ddnL	.
.	.	.	16f#Jk	.
.	4Dn	2A 2d	8f#L	.
.	.	.	8e#XJ	.
4rEE	12rc	.	8g#L	.
.	12EEnL	.	.	.
.	.	.	8f#J	.
.	12BB	.	.	.
*v	*v	*	*	*
=48	=48	=48	=48
12G#J	4G# 4d	8f#L	.
12BBL	.	.	.
.	.	8enJ	.
12G#	.	.	.
12dJ	4rc	8a#XL	.
12EL	.	.	.
.	.	8bJ	.
12d	.	.	.
12g#J	4rc	8eeL	.
12dL	.	.	.
.	.	8ee#XJ	.
12en	.	.	.
*	*v	*v	*
=49	=49	=49
.	16qg#/LL	.
.	16qb/JJ	.
12g#J	8gg#L	.
12G#L	.	.
.	8ff#J	.
12d	.	.
12eJ	4.b	.
12EL	.	.
12d	.	.
12g#J	.	.
12BBL	.	.
.	8cc#	.
12F#	.	.
=50	=50	=50
*	*^	*
12f#J	4rc	8eeL	.
12F#L	.	.	.
.	.	8ddJ	.
12d	.	.	.
12aJ	4rc	8bL	.
12EEL	.	.	.
.	.	8f#J	.
12E	.	.	.
12dJ	4e	8g#L	.
12AAAL	.	.	.
.	.	8cc#J	.
12AA	.	.	.
=51	=51	=51	=51
12EJ	8dL	8bL	.
12AAL	.	.	.
.	8c#J	8aJ	.
12E	.	.	.
12c#J	4rc	4..e	.
12BL	.	.	.
12dJ	.	.	.
12c#L	4rc	.	.
12B	.	.	.
12AJ	.	.	.
.	.	16e	.
=52	=52	=52	=52
12r	4A	2.c# 2.e	.
12FF#L	.	.	.
12C#J	.	.	.
12AL	4rc	.	.
12G#	.	.	.
12BJ	.	.	.
12AL	8rc	.	.
12G#	.	.	.
.	8A	.	.
12F#J	.	.	.
=53	=53	=53	=53
12r	4A 4d	8g#L	.
12BBBL	.	.	.
.	.	8f#J	.
12FF#J	.	.	.
12AL	4rc	4..d	.
12G#	.	.	.
12BJ	.	.	.
12AL	4rc	.	.
12G#	.	.	.
12F#J	.	.	.
.	.	16c#	.
=54	=54	=54	=54
12r	4F#	4.c#	.
12DDL	.	.	.
12GG#J	.	.	.
12F#L	4rc	.	.
12D	.	.	.
.	.	4B	.
12G#J	.	.	.
12f#L	4rc	.	.
12G#	.	.	.
.	.	8B#X	.
12DJ	.	.	.
*	*v	*v	*
=55	=55	=55
12f#L	6r	.
12A	.	.
12C#J	12c#	.
12F#L	8.f#L 8.cc#	.
12AA	.	.
12CC#J	.	.
.	16f#Jk 16cc#	.
16AALL	8f#L 8cc#	.
16F#	.	.
16C#	8c#J	.
16AJJ	.	.
=56	=56	=56
12f#L	6r	.
12A	.	.
12C#J	12d	.
12F#L	8.f#L 8.dd	.
12AA	.	.
12CC#J	.	.
.	16f#Jk 16dd	.
16AALL	8f#L 8dd	.
16F#	.	.
16C#	8dJ	.
16AJJ	.	.
=57	=57	=57
12f#L	6r	.
12G#	.	.
12C#J	12B	.
12G#L	8.f#L 8.b 8.dd	.
12GG#	.	.
12CC#J	.	.
.	16f#Jk 16b 16dd	.
16GG#LL	8f#L 8b 8dd	.
16F#	.	.
16C#	8BJ	.
16G#JJ	.	.
=58	=58	=58
12e#XL	6r	.
12B	.	.
12C#J	12B	.
12G#L	8.e#XL 8.cc#	.
12GG#	.	.
12CC#J	.	.
.	16e#Jk 16cc#	.
12C#L	8e#L 8cc#	.
12G#	.	.
.	8BJ 8e#	.
12C#J	.	.
=59	=59	=59
*	*^	*
12AL	4rc	8raa	.
12C#	.	.	.
.	.	8c#	.
12FF#J	.	.	.
12C#L	4A	8.f#L	.
12CC#	.	.	.
12FFF#J	.	.	.
.	.	16e#XJk	.
16CC#LL	4A 4c#	4e#	.
16C#	.	.	.
16FF#	.	.	.
16C#JJ	.	.	.
=60	=60	=60	=60
*	*	*^	*
12G#L	4B\	2.B	4en	.
12C#	.	.	.	.
12FF#J	.	.	.	.
12C#L	4E\	.	4d#X	.
12CC#	.	.	.	.
12FFF#J	.	.	.	.
16CC#LL	4E#X\	.	8dnL	.
16C#	.	.	.	.
16FF#	.	.	8c#J	.
16C#JJ	.	.	.	.
*	*	*v	*v	*
=61	=61	=61	=61
12AL	4rc	8raa	.
12C#	.	.	.
.	.	8c#	.
12FF#J	.	.	.
12C#L	4A	8.f#L	.
12CC#	.	.	.
12FFF#J	.	.	.
.	.	16e#XJk	.
16CC#LL	4A 4c#	4e#	.
16C#	.	.	.
16FF#	.	.	.
16C#JJ	.	.	.
=62	=62	=62	=62
*	*	*^	*
12G#L	4B\	2.B	4en	.
12C#	.	.	.	.
12FF#J	.	.	.	.
12C#L	4E\	.	4d#X	.
12CC#	.	.	.	.
12FFF#J	.	.	.	.
16CC#LL	4E#X\	.	8dnL	.
16C#	.	.	.	.
16FF#	.	.	8c#J	.
16C#JJ	.	.	.	.
*	*	*v	*v	*
*	*v	*v	*
=63	=63	=63
12AL	6r	.
12C#	.	.
12FF#J	12A	.
12C#L	8.c#L 8.f#	.
12CC#	.	.
12FFF#J	.	.
.	16c#Jk 16e#X	.
16CC#LL	8f#L 8a	.
16C#	.	.
16FF#	8AJ	.
16C#JJ	.	.
=64	=64	=64
12AL	6r	.
12C#	.	.
12FF#J	12A	.
12C#L	8.enL 8.a	.
12CC#	.	.
12FFF#J	.	.
.	16eJk 16g#	.
16CC#LL	8f#L 8a 8cc#	.
16C#	.	.
16FF#	8AJ	.
16EJJ	.	.
=65	=65	=65
12AL	6r	.
12D#X	.	.
12FF#J	12A	.
12D#L	8.d#XL 8.a	.
12BBB	.	.
12FFF#J	.	.
.	16d#Jk 16g#	.
16BBBLL	8aL 8ff#	.
16BB	.	.
16FF#	8AJ	.
16D#JJ	.	.
=66	=66	=66
12AL	6r	.
12Dn	.	.
12FF#J	12A	.
12BB#XL	8.dnL 8.f#	.
12BBB#X	.	.
12FFF#J	.	.
.	16dJk 16e#X	.
16BBB#LL	8dL 8f# 8a	.
16BB#	.	.
16FF#	8AJ	.
16DJJ	.	.
=67	=67	=67
*^	*^	*
4F#	12F#L	6rc	4raa	.
.	12C#	.	.	.
.	12FF#J	12A 12c#	.	.
4rEE	12C#L	8.f#L	2f# 2a	.
.	12CC#	.	.	.
.	12FFF#J	.	.	.
.	.	16e#XJk	.	.
4rEE	16CC#LL	4e#	.	.
.	16C#	.	.	.
.	16FF#	.	.	.
.	16C#JJ	.	.	.
=68	=68	=68	=68	=68
4A	12AL	4en	2a 2cc#	.
.	12C#	.	.	.
.	12FF#J	.	.	.
4rEE	12C#L	8d#XL	.	.
.	12CC#	.	.	.
.	.	8dnJ	.	.
.	12FFF#J	.	.	.
4rEE	16CC#LL	8f#L	[4a	.
.	16C#	.	.	.
.	16FF#	8c#J	.	.
.	16C#JJ	.	.	.
=69	=69	=69	=69	=69
4A	12AL	4c#	4a]	.
.	12C#	.	.	.
.	12FFnJ	.	.	.
4rEE	12C#L	8BL	4raa	.
.	12CC#	.	.	.
.	.	8AJ	.	.
.	12FFFnJ	.	.	.
4rEE	16CC#LL	8c#L	4raa	.
.	16C#	.	.	.
.	16FFn	8AJ	.	.
.	16C#JJ	.	.	.
=70	=70	=70	=70	=70
4F	12FnL	4a	4c# 4cc#	.
.	12AA	.	.	.
.	12CC#J	.	.	.
4rEE	12CC#L	4rc	8BL 8b	.
.	12CCC#J	.	.	.
.	.	.	8AJ 8a	.
.	12rc	.	.	.
4rEE	12C#L	4c#	8c#L 8cc#	.
.	12A	.	.	.
.	.	.	8aJ	.
.	12fnJ	.	.	.
*v	*v	*	*	*
=71	=71	=71	=71
12eL	6rc	4raa	.
12A	.	.	.
12C#J	12ee	.	.
12EL	8.aL 8.aa	2ee	.
12AA	.	.	.
12CC#J	.	.	.
.	16g#Jk 16gg#	.	.
16AALL	4g# 4gg#	.	.
16E	.	.	.
16C#	.	.	.
16AJJ	.	.	.
=72	=72	=72	=72
12d#XL	4gn 4ggn	2dd#X	.
12A	.	.	.
12BB#XJ	.	.	.
12D#XL	8f#L 8ff#	.	.
12AA	.	.	.
.	8fnJ 8ffn	.	.
12BBB#XJ	.	.	.
16CC#LL	8aL 8aa	4ee	.
16AA	.	.	.
16E	8eJ 8ee	.	.
16c#JJ	.	.	.
*	*v	*v	*
=73	=73	=73
12f##XL	4e 4ee	.
12c#	.	.
12D#XJ	.	.
12F##XL	8d#XL 8dd#X	.
12C#	.	.
.	8c##XJ 8cc##X	.
12DD#XJ	.	.
4r	8.eL 8.ee	.
.	16c#XJk 16cc#X	.
=74	=74	=74
12eL	4c# 4cc#	.
12F##X	.	.
12D#XJ	.	.
12D#L	8B#XL 8b#X	.
12DD#XJ	.	.
.	8BnJ 8bn	.
12r	.	.
4r	8eL 8ee	.
.	8A#XJ 8a#X	.
=75	=75	=75
*^	*^	*
4rEE	4EE 4BB 4E	4rc	4G# 4e 4g#	.
4E	12B#XL	8g#L 8gg#	4ee	.
.	12c#	.	.	.
.	.	8gnJ 8ggn	.	.
.	12EEJ	.	.	.
4rEE	12EE#XL	8.bL 8.bb	4dd#X	.
.	12D#X	.	.	.
.	12BnJ	.	.	.
.	.	16f#Jk 16ff#	.	.
=76	=76	=76	=76	=76
4rEE	12A#XL	4f# 4ff#	4ddn	.
.	12Dn	.	.	.
.	12FF#J	.	.	.
4D-X	12AnL	8fnL 8ffn	4dd-X	.
.	12B-X	.	.	.
.	.	8f-XJ 8ff-X	.	.
.	12GGnJ	.	.	.
4rEE	12AA-XL	8.a-XL 8.aa-X	4ccn	.
.	12Cn	.	.	.
.	12A-XJ	.	.	.
.	.	16e-XJk 16ee-X	.	.
=77	=77	=77	=77	=77
4rEE	12GnL	4e-X 4ee-X	4cc-X	.
.	12C-X	.	.	.
.	12AAnJ	.	.	.
4BB-X	12F#XL	8dnL 8ddn	4b-X	.
.	12G	.	.	.
.	.	8d-XJ 8dd-X	.	.
.	12BBB-XJ	.	.	.
4rEE	12BBBnL	8.fnL 8.ffn	4an	.
.	12AA	.	.	.
.	12FnJ	.	.	.
.	.	16cnJk 16ccn	.	.
*v	*v	*	*	*
=78	=78	=78	=78
12EnL	4cn 4ccn	4a-X	.
12AA-X	.	.	.
12CCnJ	.	.	.
12D#XL	8BnL 8bn	4gn	.
12E	.	.	.
.	8B-XJ 8b-X	.	.
12CC#XJ	.	.	.
12DDnL	8dnL 8ddn	8f#XL	.
12Dn	.	.	.
.	8AJ 8an	8fnJ	.
12DD#XJ 12Cn	.	.	.
=79	=79	=79	=79
.	.	16qG#X/LL	.
.	.	16qe/	.
.	.	16qg#X/JJ	.
12g#L	2.b	4e 4ee	.
12B	.	.	.
12EJ	.	.	.
12G#L	.	4.d#X 4.dd#X	.
12BB	.	.	.
12EEJ	.	.	.
16BBLL	.	.	.
16G#	.	.	.
16E	.	8dn 8ddn	.
16BJJ	.	.	.
=80	=80	=80	=80
12g#L	4a#X	4d 4dd	.
12A#X	.	.	.
12EJ	.	.	.
12F##XL	4.an	8c#L 8cc#	.
12AAn	.	.	.
.	.	8cnJ 8ccn	.
12EEJ	.	.	.
16BBLL	.	8eL 8ee	.
16F##	.	.	.
16G#	8g#	8BJ 8b	.
16d#XJJ	.	.	.
=81	=81	=81	=81
12c##XL	4g#	4B 4b	.
12G#	.	.	.
12AA#XJ	.	.	.
12AA#L	8f#L	8A#XL 8a#X	.
12AAA#XJ	.	.	.
.	8e#XJ	8G##XJ 8g##X	.
12r	.	.	.
4r	8.g#XL	8.BL 8.b	.
.	16c##XJk	16G#XJk 16g#	.
=82	=82	=82	=82
12BL	2.c##X	4G# 4g#	.
12C##X	.	.	.
12AA#XJ	.	.	.
12AA#L	.	8F##XL 8f##X	.
12AAA#XJ	.	.	.
.	.	8F#XJ 8f#X	.
12r	.	.	.
4r	.	8BL 8b	.
.	.	8E#XJ 8e#X	.
=83	=83	=83	=83
*^	*	*	*
4rEE	4BBB 4FF# 4BB	4rc	4D#X 4F#X 4B 4d#X	.
4B	12f##XL	8dd#XL 8ddd#X	4bb	.
.	12g#	.	.	.
.	.	8ddnJ 8dddn	.	.
.	12BBJ	.	.	.
4rEE	12BB#XL	8.ff#L 8.fff#	4aa#X	.
.	12A#X	.	.	.
.	12f#XJ	.	.	.
.	.	16cc#Jk 16ccc#	.	.
=84	=84	=84	=84	=84
4rEE	12e#XL	4cc# 4ccc#	4aan	.
.	12An	.	.	.
.	12C#J	.	.	.
4A-X	12enL	8ccnL 8cccn	4aa-X	.
.	12fn	.	.	.
.	.	8cc-XJ 8ccc-X	.	.
.	12DJ	.	.	.
4rEE	12E-XL	8.ee-XL 8.eee-X	4ggn	.
.	12Gn	.	.	.
.	12e-XJ	.	.	.
.	.	16b-XJk 16bb-X	.	.
=85	=85	=85	=85	=85
4rEE	12dL	4b-X 4bb-X	4gg-X	.
.	12G-X	.	.	.
.	12EnJ	.	.	.
4Fn	12c#XL	8anL 8aan	4ffn	.
.	12d	.	.	.
.	.	8a-XJ 8aa-X	.	.
.	12FFnJ	.	.	.
4rEE	12FF#XL	8.ccnL 8.cccn	4een	.
.	12E	.	.	.
.	12cnJ	.	.	.
.	.	16gnJk 16ggn	.	.
*v	*v	*	*	*
=86	=86	=86	=86
12BL	4gn 4ggn	4ee-X	.
12E-X	.	.	.
12GGnJ	.	.	.
12A#XL	8f#XL 8ff#X	4dd	.
12B	.	.	.
.	8fnJ 8ffn	.	.
12GG#XJ	.	.	.
12AAL	8anL 8aan	8cc#XL	.
12An	.	.	.
.	8enJ 8een	8ccnJ	.
12AA#XJ 12Gn	.	.	.
*clefG2	*	*	*
=87	=87	=87	=87
.	.	16qd#X/LL	.
.	.	16qb/	.
.	.	16qdd#X/JJ	.
12dd#XL	2.ff#	4b 4bb	.
12f#	.	.	.
12BJ	.	.	.
*clefF4	*	*	*
12d#XL	.	4.a#X 4.aa#X	.
12F#	.	.	.
12BBJ	.	.	.
16F#LL	.	.	.
16d#	.	.	.
16B	.	8an 8aan	.
16f#JJ	.	.	.
*clefG2	*	*	*
=88	=88	=88	=88
12dd#XL	4ee#X	4a 4aa	.
12e#X	.	.	.
12BJ	.	.	.
*clefF4	*	*	*
12c##XL	4.een	8g#L 8gg#	.
12En	.	.	.
.	.	8gnJ 8ggn	.
12BBJ	.	.	.
16F#LL	.	8bL 8bb	.
16c##	.	.	.
16d#X	8dd#X	8f#J 8ff#	.
16a#XJJ	.	.	.
=89	=89	=89	=89
12g##XL	4dd#X	4f# 4ff#	.
12d#X	.	.	.
12E#XJ	.	.	.
12E#L	8cc#L	8e#XL 8ee#X	.
12EE#XJ	.	.	.
.	8b#XJ	8d##XJ 8dd##X	.
12r	.	.	.
4r	8.dd#XL	8.f#L 8.ff#	.
.	16g##XJk	16d#XJk 16dd#	.
=90	=90	=90	=90
12f#L	2.g##X	4d#X 4dd#X	.
12G##X	.	.	.
12E#XJ	.	.	.
12E#L	.	8c##XL 8cc##X	.
12EE#XJ	.	.	.
.	.	8c#XJ 8cc#X	.
12r	.	.	.
4r	.	8f#L 8ff#	.
.	.	8B#XJ 8b#X	.
*	*v	*v	*
=91||	=91||	=91||
*k[b-e-a-d-g-]	*k[b-e-a-d-g-]	*
*	*^	*
.	.	16qB-/LL	.
.	.	16qg-/	.
.	.	16qb-/JJ	.
12b-L	2.dd-	4g- 4gg-	.
12d-	.	.	.
12G-J	.	.	.
12B-L	.	4.f 4.ff	.
12D-	.	.	.
12GG-J	.	.	.
16D-LL	.	.	.
16B-	.	.	.
16G-	.	8f-X 8ff-X	.
16d-JJ	.	.	.
=92	=92	=92	=92
12b-L	4cc	4f-X 4ff-X	.
12c	.	.	.
12G-J	.	.	.
12AnL	4.cc-X	8e-L 8ee-	.
12C-X	.	.	.
.	.	8e--J 8ee--	.
12GG-J	.	.	.
16D-LL	.	8g-L 8gg-	.
16A	.	.	.
16B-	8b-	8d-J 8dd-	.
16fnJJ	.	.	.
=93	=93	=93	=93
12enL	4b-	4d- 4dd-	.
12B-	.	.	.
12CnJ	.	.	.
12CL	8a-L	8cnL 8ccn	.
12CCJ	.	.	.
.	8gnJ	8BnJ 8bn	.
12r	.	.	.
4r	8.b-XL	8.d-L 8.dd-	.
.	16enJk	16B-XJk 16b-	.
=94	=94	=94	=94
12d-L	2.en	4B- 4b-	.
12En	.	.	.
12CJ	.	.	.
12CL	.	8AnL 8an	.
12CCJ	.	.	.
.	.	8A-XJ 8a-X	.
12r	.	.	.
4r	.	8d-L 8dd-	.
.	.	8GnJ 8gn	.
=95	=95	=95	=95
16FFLL 16F	4rc	8raa	.
[16DD-J [16D-	.	.	.
8DD-J_ 8D-_	.	8B- 8b-	.
2DD-] 2D-]	4B- 4f	8.FL 8.f	.
.	.	16G-XJk 16g-X	.
.	4B- 4en	4G- 4g-	.
=96	=96	=96	=96
16BB-LL 16B-	4B- 4en	4Gn 4gn	.
[16DD-J [16D-	.	.	.
8DD-J_ 8D-_	.	.	.
4DD-] 4D-]	4B- 4e	4A- 4a-	.
16CCLL 16C	4e	8AnL 8an	.
[16FFF#XJ [16FF#X	.	.	.
8FFF#J] 8FF#]	.	8A#XJ 8a#X	.
=97	=97	=97	=97
16BBBnLL 16BBn	4rc	8raa	.
[16GGGnJ [16GGn	.	.	.
8GGGJ_ 8GG_	.	8en 8een	.
2GGG] 2GG]	4e 4b	8.BnL 8.bn	.
.	.	16cJk 16cc	.
.	4e 4a#X	4c 4cc	.
=98	=98	=98	=98
16EEnLL 16En	4en 4a#X	4c#X 4cc#X	.
[16GGGnJ [16GGn	.	.	.
8GGGJ_ 8GG_	.	.	.
4GGG] 4GG]	4e 4a#	4dn 4ddn	.
16GGG-XLL 16GG-X	4b-X	8e-XL 8ee-X	.
[16CCCJ [16CC	.	.	.
8CCCJ] 8CC]	.	8enJ 8een	.
=99	=99	=99	=99
16DDD-LL 16DD-	8rc	4raa	.
[16DD-J [16D-	.	.	.
8DD-J_ 8D-_	8f 8ff	.	.
4.DD-] 4.D-]	8.b-L 8.bb-	2ff	.
.	16anJk 16aan	.	.
.	4a 4aa	.	.
8F 8f	.	.	.
=100	=100	=100	=100
2.B- 2.d- 2.b-	4a-X 4aa-X	2.dd-	.
.	4gn 4ggn	.	.
.	8g-XL 8gg-X	.	.
.	8fJ 8ff	.	.
=101	=101	=101	=101
16FFLL 16F	4rc	8raa	.
[16DD-J [16D-	.	.	.
8DD-J_ 8D-_	.	8F 8f	.
2DD-] 2D-]	2f	8.B-L 8.b-	.
.	.	16AnJk 16an	.
.	.	4A 4a	.
=102	=102	=102	=102
2.D- 2.B-	2.d-	4A-X 4a-X	.
.	.	4Gn 4gn	.
.	.	8G-XL 8g-X	.
.	.	8FJ 8f	.
*	*v	*v	*
=103	=103	=103
8r	2.r	.
8FF 8F	.	.
8.BB-L 8.B-	.	.
16AAnJk 16An	.	.
4AA 4A	.	.
=104	=104	=104
*^	*	*
4AA-X 4A-X	8rc	2.r	.
.	8B-	.	.
4GGn 4Gn	8.E-L 8.e-	.	.
.	16DnJk 16dn	.	.
8GG-XL 8G-X	4D 4d	.	.
8FFJ 8F	.	.	.
*v	*v	*	*
=105	=105	=105
*	*^	*
4D-X 4d-X	8rc	2.raa	.
.	8e-	.	.
4C 4c	8.A-L 8.a-	.	.
.	16GnJk 16gn	.	.
8C-XL 8c-X	4G 4g	.	.
8BB-J 8B-	.	.	.
=106	=106	=106	=106
2.r	4G-X 4g-X	8raa	.
.	.	8a-	.
.	4F 4f	8.d-L 8.dd-	.
.	.	16cJk 16cc	.
.	8F-XL 8f-X	4c 4cc	.
.	8E-J 8e-	.	.
*	*v	*v	*
=107||	=107||	=107||
*k[]	*k[]	*
8r	4B 4b	.
8FF#X 8F#X	.	.
8.BBL 8.B	4r	.
16AA#XJk 16A#X	.	.
4AA# 4A#	4r	.
=108	=108	=108
*^	*^	*
4AAn 4An	8rc	2.rc	2.raa	.
.	8B	.	.	.
4GG#X 4G#X	8.EL 8.e	.	.	.
.	16D#XJk 16d#X	.	.	.
8GGnL 8Gn	4D# 4d#	.	.	.
8FF#XJ 8F#X	.	.	.	.
=109	=109	=109	=109	=109
2.rEE	4Dn 4dn	8rc	2.raa	.
.	.	8e	.	.
.	4C#X 4c#X	8.AL 8.a	.	.
.	.	16G#XJk 16g#X	.	.
.	8CnL 8cn	4G# 4g#	.	.
.	8BBJ 8B	.	.	.
=110	=110	=110	=110	=110
2.rEE	2.rc	4Gn 4gn	8raa	.
.	.	.	8a	.
.	.	4F#X 4f#X	8.dL 8.dd	.
.	.	.	16c#XJk 16cc#X	.
.	.	8FnL 8fn	4c# 4cc#	.
.	.	8EJ 8e	.	.
=111	=111	=111	=111	=111
8rEE	4rc	2.rc	4cn 4ccn	.
8GG 8G	.	.	.	.
8.CL 8.c	4rc	.	4raa	.
16BBJk 16B	.	.	.	.
4BB 4B	8rc	.	4raa	.
.	8c#X	.	.	.
=112	=112	=112	=112	=112
8AA#XL 8A#X	8.F#XL 8.f#X	2.rc	4raa	.
8AAnJ 8An	.	.	.	.
.	16fnJk	.	.	.
4rEE	4Fn 4f	.	8raa	.
.	.	.	8g	.
4rEE	8EL 8e	.	8.cL 8.cc	.
.	8D#XJ 8d#X	.	.	.
.	.	.	16bJk	.
=113	=113	=113	=113	=113
4rEE	2.rc	4B 4b	8raa	.
.	.	.	8cc#X	.
4rEE	.	8A#XL 8a#X	8.f#XL 8.ff#X	.
.	.	8AnJ 8an	.	.
.	.	.	16e#XJk 16ee#X	.
8rEE	.	4rc	4fn 4ffn	.
8AA-X 8A-X	.	.	.	.
=114	=114	=114	=114	=114
8.D-XL 8.d-X	4rc	2.rc	2.raa	.
16CJk 16c	.	.	.	.
4C 4c	8rc	.	.	.
.	8dn	.	.	.
8BBL 8B	8.GL 8.g	.	.	.
8BB-XJ 8B-X	.	.	.	.
.	16g-XJk	.	.	.
=115	=115	=115	=115	=115
2.rEE	4G-X 4g-X	8rc	4raa	.
.	.	8a-X	.	.
.	8FL 8f	8.d-XL 8.dd-X	4raa	.
.	8EJ 8e	.	.	.
.	.	16ccJk	.	.
.	4rc	4c 4cc	8raa	.
.	.	.	8ddn	.
=116	=116	=116	=116	=116
2.rEE	4rc	8BL 8b	8.gnL 8.ggn	.
.	.	8A#XJ 8a#X	.	.
.	.	.	16f#XJk 16ff#X	.
.	8rc	4rc	4f# 4ff#	.
.	8AAn 8An	.	.	.
.	8.DL 8.d	4rc	4raa	.
.	16DJk 16d	.	.	.
=117	=117	=117	=117	=117
8rEE	4D 4d	4rc	4raa	.
8AAA 8AA	.	.	.	.
8.DL	4F#X 4d	4f#X 4ff#X	4dd	.
16CC#XJk 16C#X	.	.	.	.
4CC# 4C#	4rc	4g 4gg	4dd 4ff#	.
=118	=118	=118	=118	=118
4Cn	4F#X 4d	4g#X 4gg#X	4dd 4ff#X	.
4BBB 4BB	4rc	4a 4aa	4dd 4ff#	.
8BBB-XL 8BB-X	4rc	4ff# 4ddd 4fff#X	4raa	.
8AAAJ 8AA	.	.	.	.
*v	*v	*	*	*
=119	=119	=119	=119
8qAAA/ 8qAA	.	.	.
2.F#X 2.A 2.d 2.a	4ee 4eee	2.aa	.
.	4ee-X 4eee-X	.	.
.	4dd 4ddd	.	.
*clefG2	*	*	*
=120	=120	=120	=120
2.d 2.f#X 2.dd	4cc#X 4ccc#X	2.ff#X	.
.	4b 4bb	.	.
.	8b-XL 8bb-X	.	.
.	8aJ 8aa	.	.
*	*v	*v	*
*clefF4	*	*
=121	=121	=121
4EEE#X 4EE#X	8r	.
.	8D	.
4FFF#X 4FF#X	8.AL 8.d	.
.	16AJk 16d 16e	.
4GGG 4GG	8B-XL 8d 8f#X	.
.	8DJ	.
=122	=122	=122
4GGG#X 4GG#X	8r	.
.	8F#X	.
4AAA 4AA	8.dL 8.f#X	.
.	16dJk 16g	.
4FF#X 4F#X	8dL 8a	.
.	8AJ	.
=123	=123	=123
4EE 4E	8r	.
.	8A	.
4EE-X 4E-X	8.c#XL 8.g 8.a	.
.	16gJk 16a 16cc#X	.
4DD 4D	8f#XL 8a 8dd	.
.	8AJ	.
=124	=124	=124
4CCn 4Cn	8r	.
.	8d	.
8BBBL 8BB	8.gL 8.dd	.
8BBB-XJ 8BB-X	.	.
.	16eJk 16dd 16ee	.
12AAAL 12AA	8e#XL 8dd 8ee#X	.
12FFF#X 12FF#X	.	.
.	8f#XJ 8dd 8ff#X	.
12DDDJ 12DD	.	.
=125||	=125||	=125||
*k[f#c#g#d#a#e#]	*k[f#c#g#d#a#e#]	*
*	*^	*
4BBBB#X 4BBB#X	4rc	6raa	.
.	.	12an	.
12F#L	4a	8.d#L 8.dd#	.
12AAn	.	.	.
12BBB#J	.	.	.
.	.	16c##XJk 16cc##X	.
16AALL	4a	4c## 4cc##	.
16F#	.	.	.
16BB#X	.	.	.
16AnJJ	.	.	.
=126	=126	=126	=126
12e#L	2g##X	4c#X 4cc#X	.
12G##X	.	.	.
12C#J	.	.	.
12E#L	.	4B#X 4b#X	.
12GG##X	.	.	.
12CC#J	.	.	.
16CC##XLL	4g#X	8BnL 8bn	.
16GG#X	.	.	.
16E#	.	8A#XJ 8a#X	.
16e#JJ	.	.	.
=127	=127	=127	=127
12f#L	8rc	4raa	.
12An	.	.	.
.	8cc#	.	.
12D#J	.	.	.
12AL	8.f#L 8.ff#	4cc#	.
12C#	.	.	.
12DD#J	.	.	.
.	16e#Jk 16ee#	.	.
16C#LL	4e# 4ee#	4cc#	.
16A	.	.	.
16D#	.	.	.
16c#JJ	.	.	.
=128	=128	=128	=128
12g#L	4en 4een	2b#X	.
12B#X	.	.	.
12EnJ	.	.	.
12G#L	4d# 4dd#	.	.
12BB#X	.	.	.
12EEnJ	.	.	.
16EE#XLL	8dnL 8ddn	4bn	.
16BBn	.	.	.
16G#	8c#J 8cc#	.	.
16g#JJ	.	.	.
=129	=129	=129	=129
12anL	8rc	4raa	.
12cn	.	.	.
.	8een	.	.
12F#J	.	.	.
12cL	8.anL 8.aan	4ee	.
12En	.	.	.
12FF#J	.	.	.
.	16g#Jk 16gg#	.	.
16GG#LL	4g# 4gg#	4ee	.
16E	.	.	.
16B#X	.	.	.
16enJJ	.	.	.
=130	=130	=130	=130
12b#XL	8f##XL 8ff##X	8dd#	.
12d#X	.	.	.
.	8ff##J	8raa	.
12G##XJ	.	.	.
12d#L	8b#XL 8bb#X	4ff##	.
12F##X	.	.	.
.	8a##XJ 8aa##X	.	.
12GG##XJ	.	.	.
16AA##XLL	4a## 4aa##	4ff##	.
16F##	.	.	.
16d#	.	.	.
16f##XJJ	.	.	.
*clefG2	*	*	*
=131	=131	=131	=131
12dd#L	8a#X 8aa#X	8ff#X	.
12f#	.	.	.
.	8dd# 8ff#	8raa	.
12B#XJ	.	.	.
*clefF4	*	*	*
12f#L	8.aa#L 8.ddd#	4raa	.
12A#	.	.	.
12BB#XJ	.	.	.
.	16aa#Jk 16ddd#	.	.
16A#LL	8aa#L 8ddd#	4raa	.
16f#	.	.	.
16B#X	8dd#J 8ff#	.	.
16a#JJ	.	.	.
*	*v	*v	*
*clefG2	*	*
=132	=132	=132
12ff#L	8r	.
12a#	.	.
.	8ddn 8ff#	.
12B#XJ	.	.
*clefF4	*	*
12f#L	8.aa#L 8.dddn	.
12A#	.	.
12BB#XJ	.	.
.	16aa#Jk 16ddd	.
16A#LL	8aa#L 8ddd	.
16f#	.	.
16B#X	8ddJ 8ff#	.
16a#JJ	.	.
*clefG2	*	*
=133	=133	=133
12ff#L	8r	.
12a#	.	.
.	8cc# 8ff#	.
12c#J	.	.
*clefF4	*	*
12f#L	8.aa#L 8.ccc#	.
12A#	.	.
12C#J	.	.
.	16aa#Jk 16ccc#	.
16A#LL	8aa#L 8ccc#	.
16f#	.	.
16c#	8cc#J 8ff#	.
16a#JJ	.	.
=134	=134	=134
12f#L	8r	.
12A#	.	.
.	8c# 8f#	.
12C#J	.	.
12F#L	8.a#L 8.cc#	.
12AA#	.	.
12CC#J	.	.
.	16a#Jk 16cc#	.
16AA#LL	8a#L 8cc#	.
16F#	.	.
16C#	8c#J 8f#	.
16A#JJ	.	.
=135	=135	=135
12f#L	8r	.
12G#	.	.
.	8B 8f#	.
12C#J	.	.
12F#L	8.g#L 8.cc#	.
12GG#	.	.
12CC#J	.	.
.	16g#Jk 16cc#	.
16GG#LL	8g#L 8cc#	.
16F#	.	.
16C#	8BJ 8f#	.
16G#JJ	.	.
=136	=136	=136
12e#L	8r	.
12G#	.	.
.	8B 8e#	.
12C#J	.	.
12E#L	8g#L 8cc#	.
12GG#	.	.
.	8b#XJ	.
12CC#J	.	.
4r	8cc#L	.
.	8cc##XJ	.
=137	=137	=137
*^	*^	*
[2Bn	2.c#X	2.e#	8.dd#L	.
.	.	.	16g#Jk	.
.	.	.	4.g#	.
8BL]	.	.	.	.
8A#J	.	.	8a#	.
=138	=138	=138	=138	=138
4G#	2d#	2f#	8cc#L	.
.	.	.	8bJ	.
4B	.	.	8g#L	.
.	.	.	8d#J	.
4C#	4rc	8c#L 8e#	8e#L	.
.	.	8BJ 8d#	8a#J	.
*v	*v	*	*	*
=139	=139	=139	=139
8FFF#L	8BL 8d#	8g#L	.
[8FF#J	8A#J 8c#	8f#J	.
2FF#] 2C#	8A#L	4..c#	.
.	8G#	.	.
.	8B	.	.
.	8A#J	.	.
.	.	16c#	.
=140	=140	=140	=140
*	*^	*^	*
8DD#L	4F#\	2A#\	2c#	4raa	.
8AA#	.	.	.	.	.
8D#	4r	.	.	4raa	.
8E#	.	.	.	.	.
8G#	4r	4r	4rc	8raa	.
8F#J	.	.	.	8g##X	.
*	*	*	*v	*v	*
*	*	*v	*v	*
=141	=141	=141	=141
*^	*	*	*
[2F#	2.G#X	4.c#	8.a#L	.
.	.	.	16d#Jk	.
.	.	.	4.d#	.
.	.	4.B#X	.	.
8F#L]	.	.	.	.
8E#J	.	.	8e#	.
=142	=142	=142	=142	=142
4D#	2A#	2c#	8g#L	.
.	.	.	8f#J	.
4F#	.	.	8d#L	.
.	.	.	8A#J	.
4GG#	4rc	8G#L 8B#	8B#XL	.
.	.	8F#J 8A#	8e#J	.
*v	*v	*	*	*
=143	=143	=143	=143
8CCC#L	8F#L 8A#	8d#L	.
[8CC#J	8E#J 8G#	8c#J	.
2CC#] 2GG#	8E#L	4..G#	.
.	8D#	.	.
.	8F#	.	.
.	8E#J	.	.
.	.	16G#	.
*	*v	*v	*
=144	=144	=144
8BBB#XL	4.E# 4.G#	.
8EE#J	.	.
8C#	.	.
8r	8G#	.
4r	8c#L	.
.	8e#J	.
=145	=145	=145
.	16qG#/LL	.
.	16qc#/	.
.	16qe#/JJ	.
*^	*^	*
2.AAA#	4rc	4rc	8.cc#L	.
.	.	.	16e#Jk	.
.	2C#	[2G#	4.e#	.
.	.	.	8f#	.
*v	*v	*	*	*
=146	=146	=146	=146
12r	4G#]	8e#L	.
12DD#L	.	.	.
.	.	8d#J	.
12AA#J	.	.	.
12C#L	4F#	8G##XL	.
12BB#X	.	.	.
.	.	8A#J	.
12AA#J	.	.	.
12F#L	4A#	8c##XL	.
12AA#	.	.	.
.	.	8d#J	.
12DD#J	.	.	.
=147	=147	=147	=147
.	.	16qF#/LL	.
.	.	16qBn/	.
.	.	16qd#/JJ	.
*^	*	*	*
2GGG#	4rc	4rc	8.bnL	.
.	.	.	16d#Jk	.
.	4BBn	2F# 2B	8d#L	.
.	.	.	8c##XJ	.
4rEE	12rc	.	8e#L	.
.	12CC#L	.	.	.
.	.	.	8d#J	.
.	12GG#	.	.	.
*v	*v	*	*	*
=148	=148	=148	=148
12E#J	4E# 4B	8d#L	.
12GG#L	.	.	.
.	.	8c#XJ	.
12E#	.	.	.
12BJ	4rc	8f##XL	.
12C#L	.	.	.
.	.	8g#J	.
12B	.	.	.
12e#J	4rc	8cc#L	.
12BL	.	.	.
.	.	8cc##XJ	.
12c#X	.	.	.
*	*v	*v	*
=149	=149	=149
.	16qe#/LL	.
.	16qg#/JJ	.
12e#J	8ee#L	.
12E#L	.	.
.	8dd#J	.
12B	.	.
12c#J	4.g#	.
12C#L	.	.
12B	.	.
12e#J	.	.
12GG#L	.	.
.	8a#	.
12D#	.	.
=150	=150	=150
*	*^	*
12d#J	4rc	8cc#L	.
12D#L	.	.	.
.	.	8bJ	.
12B	.	.	.
12f#J	4rc	8g#L	.
12CC#L	.	.	.
.	.	8d#J	.
12E#	.	.	.
12BJ	4c#	8e#L	.
12FFF#L	.	.	.
.	.	8a#J	.
12FF#	.	.	.
=151	=151	=151	=151
12C#J	8BL	8g#L	.
12FF#L	.	.	.
.	8A#J	8f#J	.
12C#	.	.	.
12A#J	4rc	4..c#	.
12G#L	.	.	.
12BJ	.	.	.
12A#L	4rc	.	.
12G#	.	.	.
12F#J	.	.	.
.	.	16c#	.
=152	=152	=152	=152
12r	4F#	2.A# 2.c#	.
12DD#L	.	.	.
12AA#J	.	.	.
12F#L	4rc	.	.
12E#	.	.	.
12G#J	.	.	.
12F#L	8rc	.	.
12E#	.	.	.
.	8F#	.	.
12D#J	.	.	.
=153	=153	=153	=153
12r	4F# 4B	8e#L	.
12GGG#L	.	.	.
.	.	8d#J	.
12DD#J	.	.	.
12F#L	4rc	4..B	.
12E#	.	.	.
12G#J	.	.	.
12F#L	4rc	.	.
12E#	.	.	.
12D#J	.	.	.
.	.	16A#	.
=154	=154	=154	=154
12r	4D#	4.A#	.
12BBBL	.	.	.
12EE#J	.	.	.
12D#L	4rc	.	.
12BB	.	.	.
.	.	4G#	.
12E#J	.	.	.
12d#L	4rc	.	.
12E#	.	.	.
.	.	8G##X	.
12BBJ	.	.	.
*	*v	*v	*
=155	=155	=155
12d#L	6r	.
12F#	.	.
12AA#J	12A#	.
12D#L	8.d#L 8.a#	.
12FF#	.	.
12AAA#J	.	.
.	16d#Jk 16a#	.
16FF#LL	8d#L 8a#	.
16D#	.	.
16AA#	8A#J	.
16F#JJ	.	.
=156	=156	=156
12d#L	6r	.
12F#	.	.
12AA#J	12B	.
12D#L	8.d#L 8.b	.
12FF#	.	.
12AAA#J	.	.
.	16d#Jk 16b	.
16FF#LL	8d#L 8b	.
16D#	.	.
16AA#	8BJ	.
16F#JJ	.	.
=157	=157	=157
12d#L	6r	.
12E#	.	.
12AA#J	12G#	.
12E#L	8.d#L 8.g# 8.b	.
12EE#	.	.
12AAA#J	.	.
.	16d#Jk 16g# 16b	.
16EE#LL	8d#L 8g# 8b	.
16D#	.	.
16AA#	8G#J	.
16E#JJ	.	.
=158	=158	=158
12c##XL	6r	.
12G#	.	.
12AA#J	12G#	.
12E#L	8.c##XL 8.a#	.
12EE#	.	.
12AAA#J	.	.
.	16c##Jk 16a#	.
12AA#L	8c##L 8a#	.
12E#	.	.
.	8G#J 8c##	.
[12AA#J	.	.
=159	=159	=159
4DD# 4AA#]	8F# 8d#	.
.	8a#	.
12F#L	8.d#L 8.dd#	.
12AA#	.	.
12DD#J	.	.
.	16c##XJk 16cc##X	.
16AA#LL	4c## 4cc##	.
16F#	.	.
16D#	.	.
16A#JJ	.	.
=160	=160	=160
*	*^	*
12f#L	2d#	4c#X 4cc#X	.
12An	.	.	.
12D#J	.	.	.
12F#L	.	4B#X 4b#X	.
12GG#	.	.	.
12DD#J	.	.	.
12GG##XL	8d#L	8BnL 8bn	.
12E#	.	.	.
.	8c##XJ	8A#J 8a#	.
12AA#J	.	.	.
*	*v	*v	*
=161	=161	=161
12f#L	8r	.
12A#	.	.
.	8a#	.
12D#J	.	.
12F#L	8.d#L 8.dd#	.
12AA#	.	.
12DD#J	.	.
.	16c##XJk 16cc##X	.
16AA#LL	4c## 4cc##	.
16F#	.	.
16D#	.	.
16A#JJ	.	.
=162	=162	=162
*	*^	*
12f#L	2d#	4c#X 4cc#X	.
12An	.	.	.
12D#J	.	.	.
12F#L	.	4B#X 4b#X	.
12GG#	.	.	.
12DD#J	.	.	.
12GG##XL	8d#L	8BnL 8bn	.
12E#	.	.	.
.	8c##XJ	8A#J 8a#	.
12AA#J	.	.	.
*	*v	*v	*
=163	=163	=163
12F#L	6r	.
12AA#	.	.
12DD#J	12F#	.
12DD#L	8.A#L 8.d#	.
12DDD#	.	.
12DD#J	.	.
.	16A#Jk 16c##X	.
12DD#L	6A# 6d# 6f#	.
12AA#	.	.
12F#J	12F#	.
=164	=164	=164
12F#L	6r	.
12AA#	.	.
12DDnJ	12A#	.
12DDL	8.dnL 8.f#	.
12DDDn	.	.
12DDJ	.	.
.	16dJk 16e#X	.
12DDL	8dL 8f# 8a#	.
12AA#	.	.
.	8A#J	.
12F#J	.	.
=165	=165	=165
12F#L	6r	.
12AA#	.	.
12CC#J	12A#	.
12CC#L	8.c#L 8.f# 8.a#	.
12CCC#	.	.
12CC#J	.	.
.	16f#Jk 16g##X	.
12CC#L	8f#L 8a# 8cc#	.
12AA#	.	.
.	8A#J	.
12F#J	.	.
=166	=166	=166
12F#L	6r	.
12AA#	.	.
12CCnJ	12A#	.
12CCL	8.f#L 8.a# 8.cc##X	.
12CCCn	.	.
12CCJ	.	.
.	16f#Jk 16a# 16cc#X	.
12CCL	8a#L 8cc##X 8ff#	.
12AA#	.	.
.	8c##XJ 8f# 8a#	.
12F#J	.	.
=167	=167	=167
12d#L	8r	.
12F#	.	.
.	8f#	.
12BBJ	.	.
12D#L	8.BL 8.b	.
12FF#	.	.
12BBBJ	.	.
.	16A#Jk 16a#	.
16FF#LL	4A# 4a#	.
16D#	.	.
16BB	.	.
16F#JJ	.	.
=168	=168	=168
*	*^	*
12d#L	2B	4An 4an	.
12Fn	.	.	.
12BBJ	.	.	.
12DnL	.	4G# 4g#	.
12EEn	.	.	.
12BBBJ	.	.	.
12EE#XL	4rc	8GnL 8gn	.
12D#X	.	.	.
.	.	8F#XJ 8f#X	.
12FF#XJ	.	.	.
*	*v	*v	*
=169	=169	=169
4BBB 4BB	6r	.
.	12d# 12f#	.
4FFF# 4FF#	8.bL 8.dd#	.
.	16bJk 16dd#	.
4GGG#X 4GG#X	8bL 8dd#	.
.	8d#J 8f#	.
=170	=170	=170
*^	*	*
2.AAAn 2.AAn	6rc	6r	.
.	12C# 12c#	12f#	.
.	12D#L 12d#	8.bL 8.ff#	.
.	12BB 12B	.	.
.	12FF#J 12F#	.	.
.	.	16bJk 16ff#	.
.	4BB 4B	8bL 8dd# 8ff#	.
.	.	8f#J	.
*v	*v	*	*
=171||	=171||	=171||
*k[]	*k[]	*
12bL	8r	.
12d	.	.
.	8dd	.
12GJ	.	.
12BL	8.gL 8.gg	.
12D	.	.
12GGJ	.	.
.	16f#XJk 16ff#X	.
16DLL	4f# 4ff#	.
16B	.	.
16G	.	.
16dJJ	.	.
=172	=172	=172
*	*^	*
12bL	2g	4fn 4ffn	.
12d-X	.	.	.
12GJ	.	.	.
12B-XL	.	4e 4ee	.
12C	.	.	.
12GGJ	.	.	.
12C#XL	4g	8e-XL 8ee-X	.
12Bn	.	.	.
.	.	8dnJ 8ddn	.
12DnJ	.	.	.
*	*v	*v	*
=173	=173	=173
4GG 4G	8r	.
.	8b 8dd	.
4DD 4D	8.ggL 8.bb	.
.	16ggJk 16bb	.
4EEn 4En	8ggL 8bb	.
.	8bJ 8dd	.
=174	=174	=174
*^	*	*
2.EE#X 2.E#X	6rc	6r	.
*clefG2	*	*	*
.	12c#X 12cc#X	12g	.
.	12dL 12dd	8.bL 8.gg	.
.	12B 12b	.	.
.	12GJ 12g	.	.
.	.	16bJk 16gg	.
.	4B 4b	8ddL 8gg	.
.	.	8gJ	.
*v	*v	*	*
=175	=175	=175
12bL	6r	.
12d	.	.
12F#XJ	12g 12b	.
*clefF4	*	*
12BL	8.ddL 8.gg	.
12D	.	.
12FF#XJ	.	.
.	16ddJk 16gg	.
16DLL	8ddL 8ff#X	.
16B	.	.
16F#X	8f#XJ 8b	.
16dJJ	.	.
=176	=176	=176
12b-XL	6r	.
12d	.	.
12FnJ	12g 12b-X	.
12B-XL	8.ddL 8.gg	.
12D	.	.
12FFnJ	.	.
.	16ddJk 16gg	.
16DLL	8ffnL 8aa	.
16B-	.	.
16F	8b-J 8dd 8bb-X	.
16dJJ	.	.
=177	=177	=177
12aL	6r	.
12c	.	.
12EJ	12f 12a	.
12AL	8.ccL 8.ff	.
12C	.	.
12EEJ	.	.
.	16ccJk 16ff	.
16CLL	8ccL 8ee	.
16A	.	.
16E	8eJ 8a	.
16cJJ	.	.
=178	=178	=178
12a-XL	6r	.
12c	.	.
12E-XJ	12f 12a-X	.
12A-XL	8.ccL 8.ff	.
12C	.	.
12EE-XJ	.	.
.	16ccJk 16ff	.
16CLL	8ee-XL 8gg	.
16A-	.	.
16E-	8a-J 8cc 8aa-X	.
16cJJ	.	.
=179	=179	=179
12gL	6r	.
12B	.	.
12DJ	12en 12g	.
12GL	8.bL 8.een	.
12BB	.	.
12DDJ	.	.
.	16bJk 16ee	.
16BBLL	8bL 8dd	.
16G	.	.
16D	8eJ 8b	.
16BJJ	.	.
=180	=180	=180
12f#XL	6r	.
12A	.	.
12DJ	12c 12f#X	.
12F#XL	8.aL 8.cc	.
12AA	.	.
12DDJ	.	.
.	16aJk 16cc	.
16AALL	8aL 8cc	.
16F#	.	.
16D	16cJk 16f#	.
32AJJk	16r	.
32r	.	.
=181	=181	=181
12f#XL	6r	.
12G#X	.	.
12D#XJ	12B#X 12f#X	.
12F#XL	8.g#XL 8.b#X	.
12GG#X	.	.
12DD#XJ	.	.
.	16g#Jk 16b#	.
16GG#LL	8g#L 8b#	.
16F#	.	.
16D#	8B#J 8f#	.
16G#JJ	.	.
=182	=182	=182
12B#XL	6r	.
12F#X	.	.
12GG#XJ	12G#X	.
12F#L	8.B#XL 8.f#X	.
12GG#	.	.
12DD#XJ	.	.
.	16B#Jk 16f#	.
12GG#L	8B#L 8f#	.
12GGG#XJ	.	.
.	8F#XJ 8G#	.
12r	.	.
=183||	=183||	=183||
*k[f#c#g#d#a#e#]	*k[f#c#g#d#a#e#]	*
*	*^	*
6CC# 6C#	8rc	4raa	.
.	8E# 8G#	.	.
6GGG# 6GG#	.	.	.
.	8.c#L	2c# 2e#	.
6CCC# 6CC#	.	.	.
.	16B#XJk	.	.
4r	4B#	.	.
=184	=184	=184	=184
6EE# 6E#	4Bn	2e# 2g#	.
6CC# 6C#	.	.	.
.	4A#	.	.
6CCC# 6CC#	.	.	.
4r	8AnL	4c# 4e#	.
.	8G#J	.	.
=185	=185	=185	=185
6DDn 6Dn	8rc	4raa	.
.	8F# 8An	.	.
6AAAn 6AAn	.	.	.
.	8.dL	2dn 2f#	.
6CCC# 6CC#	.	.	.
.	16c#Jk	.	.
4r	4c#	.	.
=186	=186	=186	=186
6FF# 6F#	4cn	2f# 2an	.
6DDn 6Dn	.	.	.
.	4B	.	.
6CCC# 6CC#	.	.	.
4r	8B-XL	4dn 4f#	.
.	8AnJ	.	.
*	*v	*v	*
=187	=187	=187
6DDn 6Dn	8r	.
.	8F#	.
6AAAn 6AAn	.	.
.	8.B#XL 8.f#	.
6CCC# 6CC#	.	.
.	16B#Jk 16f#	.
4r	8B#L 8f#	.
.	8F#J	.
=188	=188	=188
6AAn 6An	8r	.
.	8B#X	.
6DDn 6Dn	.	.
.	8.f#L 8.b#X	.
6AAAn 6AA	.	.
.	16f#Jk 16b#	.
4CCC# 4CC#	8f#L 8b#	.
.	8B#J	.
=189	=189	=189
6GG# 6G#	8r	.
.	8B#X	.
6DDn 6Dn	.	.
.	8.f#L 8.b#X	.
6GGG# 6GG#	.	.
.	16f#Jk 16b#	.
4CCC# 4CC#	8f#L 8b#	.
.	8B#J	.
=190	=190	=190
6GG# 6G#	8r	.
.	8c#	.
6CC# 6C#	.	.
.	8.e#L 8.cc#	.
6GGG# 6GG#	.	.
.	16e#Jk 16cc#	.
4CCC# 4CC#	8e#L 8cc#	.
.	8c#J	.
=191	=191	=191
*	*^	*
6C# 6c#	8rc	4raa	.
.	8e# 8g#	.	.
6GG# 6G#	.	.	.
.	8.cc#L	2cc# 2ee#	.
6CC# 6C#	.	.	.
.	16b#XJk	.	.
4CCC# 4CC#	4b#	.	.
=192	=192	=192	=192
6E# 6e#	4bn	2ee# 2gg#	.
6C# 6c#	.	.	.
.	4a#	.	.
6CC# 6C#	.	.	.
4CCC# 4CC#	8anL	4cc# 4ee#	.
.	8g#J	.	.
*	*v	*v	*
=193	=193	=193
4BB 4B	2.r	.
4AA#X 4A#X	.	.
8AAnL 8An	.	.
8GG#J 8G#	.	.
=194	=194	=194
*	*^	*
6Dn 6dn	8rc	4raa	.
.	8f# 8an	.	.
6AAn 6An	.	.	.
.	8.ddL	2ddn 2ff#	.
6CC# 6C#	.	.	.
.	16cc#Jk	.	.
4CCC# 4CC#	4cc#	.	.
=195	=195	=195	=195
6F# 6f#	4ccn	2ff# 2aan	.
6Dn 6dn	.	.	.
.	4b	.	.
6CC# 6C#	.	.	.
4CCC# 4CC#	8b-XL	4ddn 4ff#	.
.	8anJ	.	.
*	*v	*v	*
=196	=196	=196
4Cn 4cn	2.r	.
4BBn 4Bn	.	.
8BB-XL 8B-X	.	.
8AAnJ 8An	.	.
=197	=197	=197
4D#X 4A#X 4d#X	8r	.
.	8f##X 8a#	.
4CC# 4C#	8.dd#L 8.ff##X	.
.	16dd#Jk 16ff##	.
4CCC# 4CC#	8dd#L 8ff##	.
.	8f##J 8a#	.
=198	=198	=198
4D# 4A# 4d#	8r	.
.	8f#X 8a#	.
4CC# 4C#	8.dd#L 8.ff#X	.
.	16dd#Jk 16ff#	.
4CCC# 4CC#	8dd#L 8ff#	.
.	8f#J 8a#	.
=199	=199	=199
4D# 4A# 4d#	8r	.
.	8f##X 8a#	.
4CC# 4C#	8.dd#L 8.ff##X	.
.	16dd#Jk 16ff##	.
4CCC# 4CC#	8dd#L 8ff##	.
.	8f##J 8a#	.
=200	=200	=200
4D# 4B 4d#	8r	.
.	8f##X 8b	.
4CC# 4C#	8.dd#L 8.ff##X	.
.	16dd#Jk 16ff##	.
4CCC# 4CC#	8dd#L 8ff##	.
.	8f##J 8b	.
=201	=201	=201
4En 4B 4en	8r	.
.	8g# 8b	.
4CC# 4C#	8.eenL 8.gg#	.
.	16eeJk 16gg#	.
4CCC# 4CC#	8eeL 8gg#	.
.	8g#J 8b	.
=202	=202	=202
*	*^	*
4E#X 4B 4e#X	2g# 2gg#	4cc#	.
4C# 4B 4e#	.	4cc#	.
4FFF# 4FF#	4a# 4aa#	4ee#X	.
=203	=203	=203	=203
4C# 4A# 4e#	2.cc# 2.ccc#	4aa#	.
*clefG2	*	*	*
4e# 4a# 4ee#	.	4aa#	.
*clefF4	*	*	*
4C# 4c#	.	4aa#	.
*clefG2	*	*	*
=204	=204	=204	=204
4A# 4f# 4a#	2ee# 2eee#	4aa#	.
4f# 4a# 4ff#	.	4aa#	.
*clefF4	*	*	*
4FFF# 4FF#	4dd# 4ddd#	4aa#	.
*	*v	*v	*
=205	=205	=205
4C# 4A# 4e#	4cc# 4ee# 4aa# 4ccc#	.
4D# 4A# 4d#	4a# 4dd# 4aa#	.
4F# 4A# 4c#	4f# 4a# 4cc# 4ff#	.
=206	=206	=206
*	*^	*
8FFF# 8FF#	[2.g# [2.gg#	2.b	.
8D# 8d#	.	.	.
8.G#L 8.g#	.	.	.
16F##XJk 16f##X	.	.	.
4F## 4f##	.	.	.
=207	=207	=207	=207
*^	*	*	*
4F#X 4f#X	2.G# 2.B	2.g#] 2.gg#]	2b 2dd#	.
4E# 4e#	.	.	.	.
8EnL 8en	.	.	8cc##XL	.
8D#J 8d#	.	.	8dd#J	.
*v	*v	*	*	*
=208	=208	=208	=208
4r	2f# 2ff#	4b	.
4D# 4G# 4f#	.	4b	.
4FFF# 4FF#	4g# 4gg#	4ff#	.
=209	=209	=209	=209
4D# 4G# 4f#	2.b 2.bb	4gg#	.
*clefG2	*	*	*
4f# 4dd# 4ff#	.	4gg#	.
*clefF4	*	*	*
4D# 4d#	.	4gg#	.
*clefG2	*	*	*
=210	=210	=210	=210
4B 4f# 4b	2dd# 2ddd#	4gg#	.
4g# 4b 4gg#	.	4gg#	.
*clefF4	*	*	*
4FFF# 4FF#	4cc# 4ccc#	4gg#	.
*	*v	*v	*
=211	=211	=211
4D# 4G# 4f#	4b 4ff# 4gg# 4bb	.
4D# 4G# 4d#	4g# 4b 4dd# 4gg#	.
4D# 4G# 4B	4d# 4g# 4b 4dd#	.
=212	=212	=212
*	*^	*
8FFF# 8FF# 8C#	[2.e# [2.ee#	4g# 4b	.
*clefG2	*	*	*
8G# 8g#	.	.	.
8.c#L 8.cc#	.	4raa	.
16B#XJk 16b#X	.	.	.
4B# 4b#	.	4raa	.
=213	=213	=213	=213
*^	*	*	*
2.c#	4Bn 4bn	2.e#] 2.ee#]	2.cc#	.
.	4A# 4a#	.	.	.
.	8AnL 8an	.	.	.
.	8G#J 8g#	.	.	.
*v	*v	*	*	*
*clefF4	*	*	*
=214	=214	=214	=214
4r	2.g# 2.b	2d# 2dd#	.
4C# 4c#	.	.	.
4CC# 4C#	.	4e# 4ee#	.
*	*v	*v	*
=215	=215	=215
8FFF# 8FF#	2.a# 2.ff# 2.aa#	.
8C# 8c#	.	.
8.F#L 8.f#	.	.
16E#Jk 16e#	.	.
4E# 4e#	.	.
=216	=216	=216
*^	*^	*
2.A#	4En 4en	2cc# 2ccc#	2.ff#	.
.	4D# 4d#	.	.	.
.	8DnL 8dn	4a# 4aa#	.	.
.	8C#J 8c#	.	.	.
*v	*v	*	*	*
=217	=217	=217	=217
4r	2.B	2d#X	.
4C# 4c#	.	.	.
4CC# 4C#	.	4e#X	.
=218	=218	=218	=218
8FFF#L 8FF#	2.A# 2.f#	2.a#	.
8CC#J 8C#	.	.	.
8.FF#L 8.F#	.	.	.
16EE#Jk 16E#	.	.	.
4EE# 4E#	.	.	.
=219	=219	=219	=219
*	*	*^	*
4EEn 4En	2A#\	2f#	2cc#	.
4DD# 4D#	.	.	.	.
8DDnL 8Dn	8B#X\L	4f#	8g##XL	.
8CC#J 8C#	8c#\J	.	8a#J	.
*	*	*v	*v	*
=220	=220	=220	=220
8r	2.A#	2.f#	.
8CC# 8C#	.	.	.
8.FF#L 8.F#	.	.	.
16EE#XJk 16E#X	.	.	.
4EE# 4E#	.	.	.
=221	=221	=221	=221
4EEn 4En	2A#	2f# 2a#	.
4DD# 4D#	.	.	.
8DDnL 8Dn	4A#	8e#XL	.
8CC#J 8C#	.	8f#J	.
=222	=222	=222	=222
8r	2.F#	2.A#	.
8CC# 8C#	.	.	.
8.FF#L 8.F#	.	.	.
16EE#XJk 16E#X	.	.	.
4EE# 4E#	.	.	.
=223	=223	=223	=223
*	*^	*^	*
4EEn 4En	4r	4r	2A#	[4f#	.
4DD# 4D#	4r	8.r	.	8.f#L]	.
.	.	[16F#\	.	16F#Jk	.
8DDnL 8Dn	8.r	4F#\]	4rc	16B#XLL	.
.	.	.	.	16A#	.
8CC#J 8C#	.	.	.	16c#	.
.	[16F#\	.	.	16F#JJ	.
*	*	*	*v	*v	*
*	*	*v	*v	*
=224	=224	=224	=224
8r	2.F#]	16B#XLL	.
.	.	16AnJ	.
8CC# 8C#	.	[8AJ [8c#	.
8.FF#L 8.F#	.	2A] 2c#]	.
16EE#XJk 16E#X	.	.	.
4EE# 4E#	.	.	.
*	*v	*v	*
=225||	=225||	=225||
*k[f#c#g#]	*k[f#c#g#]	*
*^	*^	*
2.AA	4EE 4E	4rc	4raa	.
.	4DD#X 4D#X	8.rc	8.raa	.
.	.	[16F#	16F#	.
.	8DDnL 8Dn	8.F#L]	16B#XLL	.
.	.	.	16A	.
.	8CC#J 8C#	.	16c#	.
.	.	[16F#Jk	16F#JJ	.
*v	*v	*	*	*
=226	=226	=226	=226
8r	8.F#L]	16B#XLL	.
.	.	16A	.
8CC# 8AA 8C#	.	16c#	.
.	[16F#Jk	16F#JJ	.
8.FF#L 8.AA 8.F#	8.F#L]	16c#LL	.
.	.	16A	.
.	.	16d	.
16EE#XJk 16AA 16E#X	[16AJk	16AJJ	.
4EE# 4AA 4E#	8.AL]	16d#XLL	.
.	.	16c#	.
.	.	16e#X	.
.	[16AJk	16AJJ	.
=227	=227	=227	=227
4EEn 4AA 4En	8.AL]	16f#LL	.
.	.	16c#	.
.	.	16gn	.
.	[16c#Jk	16c#JJ	.
4DD#X 4AA 4D#X	8.c#L]	16g#XLL	.
.	.	16f#	.
.	.	16a	.
.	[16f#Jk	16f#JJ	.
8DDnL 8AA 8Dn	8.f#L]	16b#XLL	.
.	.	16a	.
8CC#J 8AA 8C#	.	16cc#	.
.	[16f#Jk	16f#JJ	.
=228	=228	=228	=228
8r	8.f#L]	16b#XLL	.
.	.	16a	.
8CC# 8AA 8C#	.	16cc#	.
.	[16f#Jk	16f#JJ	.
8.FF#L 8.AA 8.F#	8.f#L]	16cc#LL	.
.	.	16a	.
.	.	16dd	.
16EE#XJk 16AA 16E#X	[16aJk	16aJJ	.
4EE# 4AA 4E#	8.aL]	16dd#XLL	.
.	.	16cc#	.
.	.	16ee#X	.
.	[16aJk	16aJJ	.
=229	=229	=229	=229
4EEn 4AA 4En	8.aL]	16ff#LL	.
.	.	16cc#	.
.	.	16ggn	.
.	[16cc#Jk	16cc#JJ	.
4DD#X 4AA 4D#X	8.cc#L]	16gg#XLL	.
.	.	16ff#	.
.	.	16aa	.
.	[16ff#Jk	16ff#JJ	.
8DDnL 8AA 8Dn	4ff#]	16bb#XLL	.
.	.	16aaJ	.
8CC#J 8AA 8C#	.	8ccc#J	.
*	*v	*v	*
=230	=230	=230
4BBB#X 4BB#X	8r	.
.	8ff# 8aa	.
4F# 4A 4d 4f#	8.dddL 8.fff#	.
.	16dddJk 16fff#	.
4r	8dddL 8fff#	.
.	8ff#J 8aa	.
=231	=231	=231
2.r	2.r	.
=232	=232	=232
4BBBn 4BBn	8r	.
.	8f# 8b	.
4F# 4B 4d#X 4f#	8.dd#XL 8.ff#	.
.	16dd#Jk 16ff#	.
4r	8dd#L 8ff#	.
.	8f#J 8b	.
=233	=233	=233
2.r	2.r	.
=234	=234	=234
4FFF# 4FF#	8r	.
.	8a 8cc#	.
4F# 4A 4c# 4f#	8.ff#L 8.aa	.
.	16ff#Jk 16aa	.
8FFF#L 8FF#	8ff#L 8aa	.
8C#J 8F# 8A 8c#	8aJ 8cc#	.
=235	=235	=235
2.r	2.r	.
==	==	==
*-	*-	*-
!!!system-decoration: {(*)}
!!!ENC: Bryan Jacob Bell
!!!END: November 2021 to April 2022
!!!PED: Günter Philipp
!!!PTL: Ausgewählte Klavierwerke (Edition Peters)
